packages/tokens/icons/pdfTutorial/size32Px.svg

<svg viewBox="0 0 33 33" fill="none" xmlns="http://www.w3.org/2000/svg" width="1em" height="1em"><path d="M25.0372 27.4996L8.99559 27.4996C8.16501 27.4996 7.49168 26.8263 7.49168 25.9957L7.49168 5.94366C7.49168 5.11307 8.165 4.43975 8.99559 4.43975L19.1783 4.43975C19.5962 4.43975 19.9953 4.61363 20.2798 4.9197L26.1387 11.2221C26.3974 11.5003 26.5412 11.8662 26.5412 12.2461L26.5412 25.9957C26.5412 26.8263 25.8678 27.4996 25.0372 27.4996Z" stroke="currentColor"/><path d="M18.5122 3.93845V9.45277C18.5122 10.5602 19.4099 11.458 20.5174 11.458L26.0263 11.458" stroke="currentColor"/><path d="M9.84035 16.2361C9.59634 16.1647 9.59909 15.8381 9.84427 15.7704L16.8993 13.8221C16.9939 13.796 17.0946 13.796 17.1893 13.8221L24.2442 15.7704C24.4894 15.8381 24.4922 16.1647 24.2482 16.2361L17.1971 18.2985C17.0975 18.3276 16.991 18.3276 16.8914 18.2985L9.84035 16.2361Z" stroke="currentColor" stroke-linejoin="round"/><path d="M23.5612 17.5456V21.0812" stroke="currentColor" stroke-linecap="round"/><path d="M12.6416 19.542V22.2816C12.6416 22.5584 12.866 22.7829 13.1429 22.7829L21.0528 22.7829C21.3296 22.7829 21.5541 22.5584 21.5541 22.2816V19.542" stroke="currentColor" stroke-linecap="round" stroke-linejoin="round"/></svg>

<svg xmlns="http://www.w3.org/2000/svg" fill="none" viewBox="0 0 33 33" width="1em" height="1em"><path stroke="currentColor" d="M25.037 27.5H8.996a1.504 1.504 0 0 1-1.504-1.504V5.944c0-.83.673-1.504 1.504-1.504h10.182c.418 0 .817.174 1.102.48l5.859 6.302c.258.278.402.644.402 1.024v13.75c0 .83-.673 1.504-1.504 1.504Z"/><path stroke="currentColor" d="M18.512 3.938v5.515c0 1.107.898 2.005 2.005 2.005h5.51"/><path stroke="currentColor" stroke-linejoin="round" d="M9.84 16.236a.24.24 0 0 1 .004-.466l7.055-1.948a.547.547 0 0 1 .29 0l7.055 1.948a.24.24 0 0 1 .004.466l-7.05 2.063a.553.553 0 0 1-.307 0l-7.05-2.063Z"/><path stroke="currentColor" stroke-linecap="round" d="M23.561 17.546v3.535"/><path stroke="currentColor" stroke-linecap="round" stroke-linejoin="round" d="M12.642 19.542v2.74a.5.5 0 0 0 .5.5h7.91a.501.501 0 0 0 .502-.5v-2.74"/></svg>
